SVG_Azure_All/Apache Spark Pool.svg

<?xml version="1.0" encoding="UTF-8" standalone="no"?>
<!-- Generated by Microsoft Visio, SVG Export Apache Spark Pool.svg Page-1 -->

<svg
   xmlns:dc="http://purl.org/dc/elements/1.1/"
   xmlns:cc="http://creativecommons.org/ns#"
   xmlns:rdf="http://www.w3.org/1999/02/22-rdf-syntax-ns#"
   xmlns:svg="http://www.w3.org/2000/svg"
   xmlns="http://www.w3.org/2000/svg"
   xmlns:sodipodi="http://sodipodi.sourceforge.net/DTD/sodipodi-0.dtd"
   xmlns:inkscape="http://www.inkscape.org/namespaces/inkscape"
   width="0.78739709in"
   height="0.78735679in"
   viewBox="0 0 56.692498 56.69"
   xml:space="preserve"
   class="st6"
   version="1.1"
   id="svg65"
   sodipodi:docname="Apache Spark Pool.svg"
   style="font-size:12px;overflow:visible;color-interpolation-filters:sRGB;fill:none;fill-rule:evenodd;stroke-linecap:square;stroke-miterlimit:3"
   inkscape:version="0.92.5 (2060ec1f9f, 2020-04-08)"><metadata
   id="metadata69"><rdf:RDF><cc:Work
       rdf:about=""><dc:format>image/svg+xml</dc:format><dc:type
         rdf:resource="http://purl.org/dc/dcmitype/StillImage" /></cc:Work></rdf:RDF></metadata><sodipodi:namedview
   pagecolor="#ffffff"
   bordercolor="#666666"
   borderopacity="1"
   objecttolerance="10"
   gridtolerance="10"
   guidetolerance="10"
   inkscape:pageopacity="0"
   inkscape:pageshadow="2"
   inkscape:window-width="640"
   inkscape:window-height="480"
   id="namedview67"
   showgrid="false"
   inkscape:zoom="1.4193119"
   inkscape:cx="37.795128"
   inkscape:cy="37.786193"
   inkscape:window-x="0"
   inkscape:window-y="0"
   inkscape:window-maximized="0"
   inkscape:current-layer="svg65" />
	<style
   type="text/css"
   id="style2">
	<![CDATA[
		.st1 {fill:url(#grad0-6);stroke:none;stroke-linecap:butt;stroke-width:34}
		.st2 {fill:url(#grad0-10);stroke:none;stroke-linecap:butt;stroke-width:34}
		.st3 {fill:url(#grad0-14);stroke:none;stroke-linecap:butt;stroke-width:34}
		.st4 {fill:#ffffff;stroke:none;stroke-linecap:butt;stroke-width:34}
		.st5 {fill:#f2f2f2;stroke:none;stroke-linecap:butt;stroke-width:34}
		.st6 {fill:none;fill-rule:evenodd;font-size:12px;overflow:visible;stroke-linecap:square;stroke-miterlimit:3}
	]]>
	</style>

	<defs
   id="Patterns_And_Gradients">
		<linearGradient
   id="grad0-6"
   x1="0"
   y1="68.02"
   x2="56.69"
   y2="68.02"
   gradientUnits="userSpaceOnUse">
			<stop
   offset="0.005"
   stop-color="#767676"
   stop-opacity="1"
   id="stop4" />
			<stop
   offset="0.24"
   stop-color="#999999"
   stop-opacity="1"
   id="stop6" />
			<stop
   offset="0.62"
   stop-color="#a3a3a3"
   stop-opacity="1"
   id="stop8" />
			<stop
   offset="1"
   stop-color="#a3a3a3"
   stop-opacity="1"
   id="stop10" />
		</linearGradient>
		<linearGradient
   id="grad0-10"
   x1="-1.4433879e-05"
   y1="90.059986"
   x2="34.650014"
   y2="90.059986"
   gradientUnits="userSpaceOnUse">
			<stop
   offset="0"
   stop-color="#f2f2f2"
   stop-opacity="1"
   id="stop13" />
			<stop
   offset="0.89"
   stop-color="#f2f2f2"
   stop-opacity="1"
   id="stop15" />
		</linearGradient>
		<linearGradient
   id="grad0-14"
   x1="-3.6116363e-07"
   y1="96.3636"
   x2="28.3464"
   y2="96.3636"
   gradientUnits="userSpaceOnUse">
			<stop
   offset="0"
   stop-color="#198ab3"
   stop-opacity="1"
   id="stop18" />
			<stop
   offset="0.01"
   stop-color="#198bb4"
   stop-opacity="1"
   id="stop20" />
			<stop
   offset="0.44"
   stop-color="#27b2d7"
   stop-opacity="1"
   id="stop22" />
			<stop
   offset="0.79"
   stop-color="#2fcbed"
   stop-opacity="1"
   id="stop24" />
			<stop
   offset="1"
   stop-color="#32d4f5"
   stop-opacity="1"
   id="stop26" />
		</linearGradient>
	</defs>
	<g
   id="g63"
   transform="translate(-34.000441,-34.0043)">
		<title
   id="title30">Page-1</title>
		<g
   id="group10326-1"
   transform="translate(34,-34.0157)">
			<title
   id="title32">Apache Spark Pool</title>
			<g
   id="group10327-2">
				<title
   id="title34">Sheet.10327</title>
				<g
   id="shape10328-3">
					<title
   id="title36">Sheet.10328</title>
					<path
   d="m 56.69,83.76 v -3.15 h -6.3 V 76.2 A 1.88976,1.88976 -180 0 0 48.5,74.31 h -4.41 v -6.29 h -3.15 v 6.29 H 34.65 V 68.02 H 31.5 v 6.29 h -6.3 v -6.29 h -3.15 v 6.29 h -6.3 V 68.02 H 12.6 v 6.29 H 8.19 A 1.88976,1.88976 -180 0 0 6.3,76.2 v 4.41 H 0 v 3.15 h 6.3 v 6.3 H 0 v 3.15 h 6.3 v 6.3 H 0 v 3.15 h 6.3 v 6.3 H 0 v 3.15 h 6.3 v 4.41 a 1.88976,1.88976 -180 0 0 1.89,1.89 h 4.41 v 6.3 h 3.15 v -6.3 h 6.3 v 6.3 h 3.15 v -6.3 h 6.3 v 6.3 h 3.15 v -6.3 h 6.29 v 6.3 h 3.15 v -6.3 h 4.41 a 1.88976,1.88976 -180 0 0 1.89,-1.89 v -4.41 h 6.3 v -3.15 h -6.3 v -6.3 h 6.3 v -3.15 h -6.3 v -6.3 h 6.3 v -3.15 h -6.3 v -6.3 z"
   class="st1"
   id="path38"
   inkscape:connector-curvature="0"
   style="fill:url(#grad0-6);stroke:none;stroke-width:34;stroke-linecap:butt" />
				</g>
				<g
   id="shape10329-7"
   transform="translate(11.0236,-11.0236)">
					<title
   id="title41">Sheet.10329</title>
					<path
   d="m 31.5,93.21 v 28.35 H 3.15 V 93.21 Z m 1.66,-3.15 H 1.48 A 1.48346,1.48346 -180 0 0 0,91.55 v 31.68 a 1.48346,1.48346 -180 0 0 1.48,1.48 h 31.68 a 1.48346,1.48346 -180 0 0 1.49,-1.48 V 91.55 a 1.48346,1.48346 -180 0 0 -1.49,-1.49 z"
   class="st2"
   id="path43"
   inkscape:connector-curvature="0"
   style="fill:url(#grad0-10);stroke:none;stroke-width:34;stroke-linecap:butt" />
				</g>
				<g
   id="shape10330-11"
   transform="translate(28.3465)">
					<title
   id="title46">Sheet.10330</title>
					<path
   d="M 14.17,124.71 A 14.1732,14.1732 -180 1 0 0,110.54 14.1732,14.1732 -180 0 0 14.17,124.71 Z"
   class="st3"
   id="path48"
   inkscape:connector-curvature="0"
   style="fill:url(#grad0-14);stroke:none;stroke-width:34;stroke-linecap:butt" />
				</g>
				<g
   id="shape10331-15"
   transform="translate(32.9449,-3.9685)">
					<title
   id="title51">Sheet.10331</title>
					<path
   d="m 19.15,110.66 -1.46,-2.52 -6.66,3.84 V 104.3 H 8.12 v 7.68 L 1.46,108.14 0,110.66 6.66,114.5 0,118.35 l 1.46,2.52 6.66,-3.85 v 7.69 h 2.91 v -7.69 l 6.66,3.85 1.46,-2.52 -6.66,-3.85 z"
   class="st4"
   id="path53"
   inkscape:connector-curvature="0"
   style="fill:#ffffff;stroke:none;stroke-width:34;stroke-linecap:butt" />
				</g>
				<g
   id="shape10332-17"
   transform="translate(17.3228,-21.7323)">
					<title
   id="title56">Sheet.10332</title>
					<path
   d="M 12.6,114.63 H 7.56 v -7.56 L 0,117.15 h 5.04 v 7.56 z"
   class="st5"
   id="path58"
   inkscape:connector-curvature="0"
   style="fill:#f2f2f2;stroke:none;stroke-width:34;stroke-linecap:butt" />
				</g>
			</g>
		</g>
	</g>
</svg>

<?xml version="1.0" encoding="UTF-8" standalone="no"?>
<!DOCTYPE svg PUBLIC "-//W3C//DTD SVG 1.1//EN" "http://www.w3.org/Graphics/SVG/1.1/DTD/svg11.dtd">
<!-- Generated by Microsoft Visio, SVG Export Apache Spark Pool.svg Page-1 -->
<svg xmlns="http://www.w3.org/2000/svg" xmlns:xlink="http://www.w3.org/1999/xlink" xmlns:ev="http://www.w3.org/2001/xml-events"
		width="1.73185in" height="1.73206in" viewBox="0 0 124.693 124.709" xml:space="preserve" color-interpolation-filters="sRGB"
		class="st6">
	<style type="text/css">
	<![CDATA[
		.st1 {fill:url(#grad0-6);stroke:none;stroke-linecap:butt;stroke-width:34}
		.st2 {fill:url(#grad0-10);stroke:none;stroke-linecap:butt;stroke-width:34}
		.st3 {fill:url(#grad0-14);stroke:none;stroke-linecap:butt;stroke-width:34}
		.st4 {fill:#ffffff;stroke:none;stroke-linecap:butt;stroke-width:34}
		.st5 {fill:#f2f2f2;stroke:none;stroke-linecap:butt;stroke-width:34}
		.st6 {fill:none;fill-rule:evenodd;font-size:12px;overflow:visible;stroke-linecap:square;stroke-miterlimit:3}
	]]>
	</style>

	<defs id="Patterns_And_Gradients">
		<linearGradient id="grad0-6" x1="0" y1="0" x2="1" y2="0" gradientTransform="rotate(-90 0.5 0.5)">
			<stop offset="0.005" stop-color="#767676" stop-opacity="1"/>
			<stop offset="0.24" stop-color="#999999" stop-opacity="1"/>
			<stop offset="0.62" stop-color="#a3a3a3" stop-opacity="1"/>
			<stop offset="1" stop-color="#a3a3a3" stop-opacity="1"/>
		</linearGradient>
		<linearGradient id="grad0-10" x1="0" y1="0" x2="1" y2="0" gradientTransform="rotate(90 0.5 0.5)">
			<stop offset="0" stop-color="#f2f2f2" stop-opacity="1"/>
			<stop offset="0.89" stop-color="#f2f2f2" stop-opacity="1"/>
		</linearGradient>
		<linearGradient id="grad0-14" x1="0" y1="0" x2="1" y2="0" gradientTransform="rotate(-90 0.5 0.5)">
			<stop offset="0" stop-color="#198ab3" stop-opacity="1"/>
			<stop offset="0.01" stop-color="#198bb4" stop-opacity="1"/>
			<stop offset="0.44" stop-color="#27b2d7" stop-opacity="1"/>
			<stop offset="0.79" stop-color="#2fcbed" stop-opacity="1"/>
			<stop offset="1" stop-color="#32d4f5" stop-opacity="1"/>
		</linearGradient>
	</defs>
	<g>
		<title>Page-1</title>
		<g id="group10095-1" transform="translate(34,-34.0157)">
			<title>Apache Spark Pool</title>
			<g id="group10096-2">
				<title>Sheet.10096</title>
				<g id="shape10097-3">
					<title>Sheet.10097</title>
					<path d="M56.69 83.76 L56.69 80.61 L50.39 80.61 L50.39 76.2 A1.88976 1.88976 -180 0 0 48.5 74.31 L44.09 74.31
								 L44.09 68.02 L40.94 68.02 L40.94 74.31 L34.65 74.31 L34.65 68.02 L31.5 68.02 L31.5 74.31 L25.2 74.31
								 L25.2 68.02 L22.05 68.02 L22.05 74.31 L15.75 74.31 L15.75 68.02 L12.6 68.02 L12.6 74.31 L8.19 74.31
								 A1.88976 1.88976 -180 0 0 6.3 76.2 L6.3 80.61 L0 80.61 L0 83.76 L6.3 83.76 L6.3 90.06 L0 90.06 L0
								 93.21 L6.3 93.21 L6.3 99.51 L0 99.51 L0 102.66 L6.3 102.66 L6.3 108.96 L0 108.96 L0 112.11 L6.3
								 112.11 L6.3 116.52 A1.88976 1.88976 -180 0 0 8.19 118.41 L12.6 118.41 L12.6 124.71 L15.75 124.71
								 L15.75 118.41 L22.05 118.41 L22.05 124.71 L25.2 124.71 L25.2 118.41 L31.5 118.41 L31.5 124.71 L34.65
								 124.71 L34.65 118.41 L40.94 118.41 L40.94 124.71 L44.09 124.71 L44.09 118.41 L48.5 118.41 A1.88976
								 1.88976 -180 0 0 50.39 116.52 L50.39 112.11 L56.69 112.11 L56.69 108.96 L50.39 108.96 L50.39 102.66
								 L56.69 102.66 L56.69 99.51 L50.39 99.51 L50.39 93.21 L56.69 93.21 L56.69 90.06 L50.39 90.06 L50.39
								 83.76 L56.69 83.76 Z" class="st1"/>
				</g>
				<g id="shape10098-7" transform="translate(11.0236,-11.0236)">
					<title>Sheet.10098</title>
					<path d="M31.5 93.21 L31.5 121.56 L3.15 121.56 L3.15 93.21 L31.5 93.21 ZM33.16 90.06 L1.48 90.06 A1.48346 1.48346
								 -180 0 0 -0 91.55 L0 123.23 A1.48346 1.48346 -180 0 0 1.48 124.71 L33.16 124.71 A1.48346 1.48346
								 -180 0 0 34.65 123.23 L34.65 91.55 A1.48346 1.48346 -180 0 0 33.16 90.06 Z" class="st2"/>
				</g>
				<g id="shape10099-11" transform="translate(28.3465,1.42109E-14)">
					<title>Sheet.10099</title>
					<path d="M14.17 124.71 A14.1732 14.1732 -180 1 0 -0 110.54 A14.1732 14.1732 -180 0 0 14.17 124.71 Z"
							class="st3"/>
				</g>
				<g id="shape10100-15" transform="translate(32.9449,-3.9685)">
					<title>Sheet.10100</title>
					<path d="M19.15 110.66 L17.69 108.14 L11.03 111.98 L11.03 104.3 L8.12 104.3 L8.12 111.98 L1.46 108.14 L0 110.66
								 L6.66 114.5 L0 118.35 L1.46 120.87 L8.12 117.02 L8.12 124.71 L11.03 124.71 L11.03 117.02 L17.69
								 120.87 L19.15 118.35 L12.49 114.5 L19.15 110.66 Z" class="st4"/>
				</g>
				<g id="shape10101-17" transform="translate(17.3228,-21.7323)">
					<title>Sheet.10101</title>
					<path d="M12.6 114.63 L7.56 114.63 L7.56 107.07 L0 117.15 L5.04 117.15 L5.04 124.71 L12.6 114.63 Z" class="st5"/>
				</g>
			</g>
		</g>
	</g>
</svg>
